X: 234
T: Quince Dillon's High D Tune
B: canberra pickers and fiddlers
B: tunes
M:4/4
L:1/8
R: reel
Q: 1/4=220
K:D
V:1 
A,B,|:"D"D2DD F2A2| dcde dcB2| "A7"A2AA c2e2| a^ga2 "D"d'3z|
"D"D2DD F2A2| dcde dcB2| "A7"ABAG FDEF|1"D"D6 A,B,:|2"D"D3e  z2ag|]
|:"D"fd2d d3A| defg a2gf| "C"e =c2 c c3 A| =cdef g2 ag|
"D"fd2d d3A| defg abaA-| "A7"ABcd egfe|1"D"d3e z2ag:|2"D"d6|]
% abcbook-tune_id 63ae8f1c3cac103bc664f266
% abcbook-tune_composer_id 
% abcbook-link-0 https://www.youtube.com/watch?v=rXc9hUaa3l8
% abcbook-boost 0
% abcbook-difficulty 0
% abcbook-tags canberra pickers and fiddlers,old time tunes,© free
% abcbook-tablature 
% abcbook-transpose 
% abcbook-tuning ADAE
% abcbook-lastupdated 1672384284224
% abcbook-src-url https://tunebook.net/scrape/tunes.abc
% abcbook-soundfonts 
% abcbook-repeats 1


